src/ui/webui/resources/cr_components/chromeos/network/wifi_3.svg

<svg width="20" height="20" viewBox="0 0 20 20" xmlns="http://www.w3.org/2000/svg">
<path fill-rule="evenodd" clip-rule="evenodd" d="M10.5554 16.7289C10.2698 17.0905 9.72802 17.0905 9.44247 16.7281L2.15749 7.49646C1.89621 7.16533 1.96831 6.68099 2.31239 6.44135C3.50455 5.61135 6.26792 4 10 4C13.7328 4 16.4955 5.61135 17.6876 6.44135C18.0317 6.68099 18.1038 7.16533 17.8425 7.49646L10.5554 16.7289ZM5.46762 8.4626L4.61134 7.37751C5.85753 6.71277 7.72159 6 10 6C12.2788 6 14.1425 6.71268 15.3886 7.37739L14.5315 8.46329C13.348 7.94707 11.8035 7.5 9.99865 7.5C8.19498 7.5 6.65099 7.94668 5.46762 8.4626Z" />
</svg>

<svg width="20" height="20" viewBox="0 0 20 20" xmlns="http://www.w3.org/2000/svg"><path fill-rule="evenodd" clip-rule="evenodd" d="M10.555 16.729a.706.706 0 0 1-1.113 0L2.157 7.495a.734.734 0 0 1 .155-1.055C3.505 5.611 6.268 4 10 4c3.733 0 6.495 1.611 7.688 2.441.344.24.416.724.155 1.055l-7.288 9.233ZM5.468 8.463 4.61 7.378C5.858 6.713 7.721 6 10 6c2.279 0 4.143.713 5.389 1.377l-.857 1.086A11.335 11.335 0 0 0 9.998 7.5a11.33 11.33 0 0 0-4.531.963Z"/></svg>
